!!!COM: Augusta Holme\s
!!!CNT: Francais
!!!TXO: Francais
!!!OTL: "Parmi Les Meules"
!!!LYR:
!!!OPR: Paysages d'Amour
!!!OPS: Op.
!!!ONM: No. 4
!!!ENC: Alyona Dzerbina
!!!YOR: Augusta Holme\s, Parmi Les Meules
!!!YOR: Da Capo Press, New York, 1984
!!!ODT: 1898/
!!NB: Vocal melody and text encoded.
**kern	**text
*staff1	*staff1
=1-	=1-
*clefG2	*
*k[f#]	*
*met(C)	*
*M4/4	*
1r	.
=2	=2
1r	.
=3	=3
1r	.
=4	=4
1r	.
=5	=5
1r	.
=6	=6
1r	.
=7	=7
1r	.
=8	=8
1r	.
=9	=9
{4g	{Dans
4f#	la
4e	plai-
8f#	-ne
8d	De
=10	=10
4g	par-
4a	-fums
4e	plei-
8f#	|
8d}	-ne,}
=11	=11
{8g	{Pre/s
8a	des
8b	meu-
8cc	-les
4dd	d'or,
8b	au
8g	so-
=12	=12
4.a	-leil
8e	cou-
2f#}	-chant,}
=13	=13
{4g	{Mon
4f#	a-
(4e	-man-
8f#)	-te
8d	Rose
=14	=14
4g	et
4a	char-
(4e	-man-
8f#)	|
8d}	-te,}
=15	=15
{8g	{Er-
8a	-rait
8b	sur
8cc	les
8dd	ble/s
8ee	cou-
8dd	-pe/s
8b	en
=16	=16
4g	me
4a	cher-
[4g	-chant.
8g]}	|}
8r	.
=17	=17
1r	.
=18	=18
1r	.
=19	=19
1r	.
=20	=20
1r	.
=21	=21
1r	.
=22	=22
1r	.
=23	=23
1r	.
=24	=24
*k[b-e-]	*
{4g	{In-
4b-	-qui-
(8a	-e\-
8g)	|
8a	-te,
8cc	La
=25	=25
4b-	Mi-
4dd	-gnon-
(8cc	-net
8b-)	|
4cc	-te
=26	=26
8dd	Re/-
8ff	-pe/-
8dd	-tait
8ff	mon
4dd	nom,
8cc	les
8b-	grands
=27	=27
4.a	yeux
8b-	en
2a}	pleurs:}
=28	=28
{4g	{"In-
4b-	-fi-
(8a	-de\-
8g)	|
8a	-le,
8cc	Viens,
=29	=29
4b-	je
4dd	t'ap-
(8cc	-pel-
8b-)	|
4cc	-le,
=30	=30
8dd	Moi,
8ff	qui
8dd	t'ep-
8ff	-por-
(4gg	-tais
8g)	de
8b-	si
=31	=31
(4a	bel-
4g)	-les
[4dd	fleurs!"
8dd]}	|}
8r	.
=32	=32
*k[f#]	*
{4g	{Et
4f#	la
(4e	fie\-
8f#)	-vre
8d	bru^-
=33	=33
4g	-lait
4a	ma
4e	le\-
8f#	|
8d}	-vre!}
=34	=34
{8g	{Les
8a	fleurs
8b	que
8cc	je
4dd	veux,
8b	ce
8g	sont
=35	=35
4.a	tes
8e	bai-
2a}	-sers!}
=36	=36
{4g	{Je
4f#	re/-
4e	-cla-
8f#	-me,
8d	o^
=37	=37
4g	ma
4a	che\re
(4e	a^-
8f#)	|
8d}	-me!}
=38	=38
{8g	{Les
8a	bai-
8b	-sers
8cc	e/-
8dd	-clos
8ee	que
8dd	tu
8b	m'as
=39	=39
4g	re-
4a	-fu-
[4g	-se/s!
8g]}	|}
8r	.
=40	=40
1r	.
=41	=41
1r	.
=42	=42
1r	.
=43	=43
1r	.
=44	=44
1r	.
=45	=45
1r	.
=46	=46
1r	.
=47	=47
1r	.
=48	=48
*k[b-e-]	*
{4g	{"Il
4b-	m'ap-
(8a	-pel-
8g)	|
8a	-le!
8cc	D'ou\
=49	=49
4b-	donc
4dd	vient-
(8cc	-el-
8b-)	|
4cc	-le,
=50	=50
8dd	Cet-
8ff	-te
8dd	voix
8ff	si
4dd	ten-
8cc	-dre
8b-	qui
=51	=51
4.a	tient
8b-	mon
2a}	coeur?}
=52	=52
{4g	{Qui,
4b-	je
(8a	t'ai-
8g)	|
8a	-me
8cc	Plus
=53	=53
4b-	que
4dd	moi-
(8cc	-me^-
8b-)	|
4cc	-me...
=54	=54
8dd	Prends
8ff	tous
8dd	mes
8ff	bai-
(4gg	-sers,
8g)	mon
8b-	jo-
=55	=55
4a	-li
4g	vain-
[4dd	-queur!"
8dd]}	|}
8r	.
=56	=56
*k[f#]	*
{4g	{Ma
4f#	char-
4e	-man-
8f#	-te!
8d	Ma
=57	=57
4g	rose
4a	a-
(4e	-man-
8f#)	|
8d}	-te!}
=58	=58
{8g	{Voi-
8a	-ci
8b	ton
8cc	ber-
4dd	-ger
8b	qui
8g	t'at-
=59	=59
4.a	-tend
8e	tou-
2a}	-jours!}
=60	=60
{4g	{Dans
4f#	la
(4e	plai-
8f#)	-ne
8d	De
=61	=61
4g	par-
4a	-fums
(4e	plei-
8f#)	|
8d}	-ne,}
=62	=62
{8g	{Les
8a	e/-
8b	-toi-
8cc	-les
8dd	d'or
(8gg	ver-
4dd)	-ront
=63	=63
(2b	nos
2a	a-
=64	=64
[1g)	-mours!
=65	=65
4g]}	|}
4r	.
2r	.
==	==
*-	*-
